X:518
T:Compo poden per sas culpas
T:ABA
Z:Jack Campin, http://www.campin.me.uk/
F:Jack Campin's Nine-Note Tunebook
% last edit 03-02-2013
S:Cantigas de Santa Maria, 13th cent
P:ABA
M:6/8
L:1/8
Q:3/8=94
K:DDor
P:A
  zFF|FED F2G|A2A zAA|cBc d2c/B/|A2A
  zAG|FED F2G|A2A zAG|FED EDC   |D2D||
P:B
|:zcc|cBG A2B|c2c zcd|cBG A2B   |G2G:|
  zAG|FED F2G|A2A zAA|cBc d2c/B/|A2A
  zAG|FED F2G|A2A zAG|FED EDC   |D2D||

